X:196
T:Catching Of Fleas. (p)1670.PLFD1.196
M:6/4
L:1/4
Q:3/4=80
S:Playford, Dancing Master,4th Ed.,1670.
O:England;London
H:1670.
Z:Chris Partingto
K:F
c| A>GF c2 f| e>dc g>fe |fcA gec|ag>f f2:|
|:a |g>ag e>fd|^cAd cAf|dBe/f/ gef/g/ | ag>f f2 a|
g>af e/f/gA|d/e/fd c/d/ eA| g/a/bg a>gf/e/|f e2 d2:|
